public/media/designzen-wordmark.svg

<svg viewBox="0 0 548 138" xmlns="http://www.w3.org/2000/svg"><g fill="#2d2d2e"><path d="m51.2547.0175781h19.2626v102.1424219h-19.2626v-7.6037c-3.675 4.9423-10.8985 9.1247-19.6427 9.1247-17.3617 0-31.428406-14.3206-31.428406-33.3297s14.066706-33.3293 31.428406-33.3293c8.7442 0 15.9677 4.182 19.6427 9.1244zm-31.9353 70.3337219c0 9.5046 6.97 16.728 16.2211 16.728 9.3779 0 16.3479-7.2234 16.3479-16.728 0-9.5045-6.97-16.728-16.3479-16.728-9.2511 0-16.2211 7.2235-16.2211 16.728z"/><path d="m108.136 87.9664c7.477 0 11.659-3.5483 15.334-9.2511l13.56 9.3778c-6.083 10.0115-16.601 15.5879-28.894 15.5879-17.9951 0-33.3291-14.1938-33.3291-33.3297 0-19.2626 15.334-33.3293 32.8221-33.3293 20.784 0 33.076 16.4746 31.809 38.5251h-46.7626c1.9009 7.8571 8.1106 12.4193 15.4606 12.4193zm-.38-35.3569c-6.463 0-12.1658 4.0552-14.4469 10.8985h27.8799c-.887-5.4493-5.196-10.8985-13.433-10.8985z"/><path d="m167.252 103.681c-11.786 0-23.318-6.4635-26.106-17.7422l16.348-4.9424c1.52 5.3226 5.449 8.2373 10.011 8.2373 3.802 0 6.97-2.0276 6.97-5.9562 0-9.8847-30.034-2.2811-30.034-25.5989 0-11.0253 9.504-20.6566 23.571-20.6566 11.659 0 20.53 6.3364 23.444 16.2211l-16.601 4.182c-1.014-3.9285-3.421-6.0829-7.097-6.0829-3.168 0-5.702 2.1544-5.702 5.1958 0 9.3778 30.288 1.9009 30.288 25.7257 0 13.0529-12.293 21.4173-25.092 21.4173z"/><path d="m208.145 25.4898c-6.336 0-11.532-5.0691-11.532-11.4055 0-6.33635 5.196-11.40544 11.532-11.40544 6.21 0 11.405 5.06909 11.405 11.40544 0 6.3364-5.195 11.4055-11.405 11.4055zm-9.631 13.0529h19.262v63.6173h-19.262z"/><path d="m333.848 65.6624c0-6.5898-3.802-11.4055-10.646-11.4055-7.096 0-11.405 5.4493-11.405 12.9262v34.9769h-19.263v-63.6173h19.263v7.3502c3.802-4.9424 10.138-8.8709 18.502-8.8709 14.067 0 22.811 9.5046 22.811 23.3178v41.8202h-19.262z"/><path d="m387.931 55.144h-27.499v-16.6013h57.534l-30.668 47.0159h30.034v16.6014h-60.069z"/><path d="m451.048 87.9664c7.476 0 11.659-3.5483 15.334-9.2511l13.559 9.3778c-6.082 10.0115-16.601 15.5879-28.893 15.5879-17.996 0-33.33-14.1938-33.33-33.3297 0-19.2626 15.334-33.3293 32.823-33.3293 20.783 0 33.076 16.4746 31.808 38.5251h-46.762c1.901 7.8571 8.11 12.4193 15.461 12.4193zm-.381-35.3569c-6.463 0-12.165 4.0552-14.447 10.8985h27.88c-.887-5.4493-5.195-10.8985-13.433-10.8985z"/><path d="m528.552 65.6624c0-6.5898-3.801-11.4055-10.645-11.4055-7.096 0-11.405 5.4493-11.405 12.9262v34.9769h-19.263v-63.6173h19.263v7.3502c3.802-4.9424 10.138-8.8709 18.502-8.8709 14.067 0 22.811 9.5046 22.811 23.3178v41.8202h-19.263z"/><path d="m214.971 108.159h18.375c1.267 8.618 8.744 13.56 17.995 13.56 10.392 0 17.615-6.97 17.869-16.221h-33.076l-9.831-14.0666 38.345-.1267h23.571c2.788 26.3593-12.039 46.0023-37.511 46.0023-18.376 0-34.597-11.279-35.737-29.148z"/><path clip-rule="evenodd" d="m250.374 91.7284c15.311 0 27.722-11.8573 27.722-26.484s-12.411-26.4841-27.722-26.4841c-15.31 0-27.721 11.8574-27.721 26.4841s12.411 26.484 27.721 26.484zm-.176-15.1346c6.083 0 11.014-4.959 11.014-11.0763 0-6.1172-4.931-11.0762-11.014-11.0762s-11.015 4.959-11.015 11.0762c0 6.1173 4.932 11.0763 11.015 11.0763z" fill-rule="evenodd"/><path d="m255.156 25.792c0 9.2225 7.476 16.6988 16.699 16.6988 9.222 0 16.698-7.4763 16.698-16.6988z"/></g></svg>

<svg viewBox="0 0 548 138" xmlns="http://www.w3.org/2000/svg">
    <path
        d="M51.2547 0.0175781H70.5173V102.16H51.2547V94.5563C47.5797 99.4986 40.3562 103.681 31.612 103.681C14.2503 103.681 0.183594 89.3604 0.183594 70.3513C0.183594 51.3422 14.2503 37.022 31.612 37.022C40.3562 37.022 47.5797 41.204 51.2547 46.1464V0.0175781ZM19.3194 70.3513C19.3194 79.8559 26.2894 87.0793 35.5405 87.0793C44.9184 87.0793 51.8884 79.8559 51.8884 70.3513C51.8884 60.8468 44.9184 53.6233 35.5405 53.6233C26.2894 53.6233 19.3194 60.8468 19.3194 70.3513Z"
        fill="#2d2d2e" />
    <path
        d="M108.136 87.9664C115.613 87.9664 119.795 84.4181 123.47 78.7153L137.03 88.0931C130.947 98.1046 120.429 103.681 108.136 103.681C90.1409 103.681 74.8069 89.4872 74.8069 70.3513C74.8069 51.0887 90.1409 37.022 107.629 37.022C128.413 37.022 140.705 53.4966 139.438 75.5471H92.6754C94.5763 83.4042 100.786 87.9664 108.136 87.9664ZM107.756 52.6095C101.293 52.6095 95.5902 56.6647 93.3091 63.508H121.189C120.302 58.0587 115.993 52.6095 107.756 52.6095Z"
        fill="#2d2d2e" />
    <path
        d="M167.252 103.681C155.466 103.681 143.934 97.2175 141.146 85.9388L157.494 80.9964C159.014 86.319 162.943 89.2337 167.505 89.2337C171.307 89.2337 174.475 87.2061 174.475 83.2775C174.475 73.3928 144.441 80.9964 144.441 57.6786C144.441 46.6533 153.945 37.022 168.012 37.022C179.671 37.022 188.542 43.3584 191.456 53.2431L174.855 57.4251C173.841 53.4966 171.434 51.3422 167.758 51.3422C164.59 51.3422 162.056 53.4966 162.056 56.538C162.056 65.9158 192.344 58.4389 192.344 82.2637C192.344 95.3166 180.051 103.681 167.252 103.681Z"
        fill="#2d2d2e" />
    <path
        d="M208.145 25.4898C201.809 25.4898 196.613 20.4207 196.613 14.0843C196.613 7.74795 201.809 2.67886 208.145 2.67886C214.355 2.67886 219.55 7.74795 219.55 14.0843C219.55 20.4207 214.355 25.4898 208.145 25.4898ZM198.514 38.5427H217.776V102.16H198.514V38.5427Z"
        fill="#2d2d2e" />
    <path
        d="M333.848 65.6624C333.848 59.0726 330.046 54.2569 323.202 54.2569C316.106 54.2569 311.797 59.7062 311.797 67.1831V102.16H292.534V38.5427H311.797V45.8929C315.599 40.9505 321.935 37.022 330.299 37.022C344.366 37.022 353.11 46.5266 353.11 60.3398V102.16H333.848V65.6624Z"
        fill="#2d2d2e" />
    <path d="M387.931 55.144H360.432V38.5427H417.966L387.298 85.5586H417.332V102.16H357.263L387.931 55.144Z"
        fill="#2d2d2e" />
    <path
        d="M451.048 87.9664C458.524 87.9664 462.707 84.4181 466.382 78.7153L479.941 88.0931C473.859 98.1046 463.34 103.681 451.048 103.681C433.052 103.681 417.718 89.4872 417.718 70.3513C417.718 51.0887 433.052 37.022 450.541 37.022C471.324 37.022 483.617 53.4966 482.349 75.5471H435.587C437.488 83.4042 443.697 87.9664 451.048 87.9664ZM450.667 52.6095C444.204 52.6095 438.502 56.6647 436.22 63.508H464.1C463.213 58.0587 458.905 52.6095 450.667 52.6095Z"
        fill="#2d2d2e" />
    <path
        d="M528.552 65.6624C528.552 59.0726 524.751 54.2569 517.907 54.2569C510.811 54.2569 506.502 59.7062 506.502 67.1831V102.16H487.239V38.5427H506.502V45.8929C510.304 40.9505 516.64 37.022 525.004 37.022C539.071 37.022 547.815 46.5266 547.815 60.3398V102.16H528.552V65.6624Z"
        fill="#2d2d2e" />
    <path
        d="M214.971 108.159H233.346C234.613 116.777 242.09 121.719 251.341 121.719C261.733 121.719 268.956 114.749 269.21 105.498H236.134L226.303 91.4314L264.648 91.3047H288.219C291.007 117.664 276.18 137.307 250.708 137.307C232.332 137.307 216.111 126.028 214.971 108.159Z"
        fill="#2d2d2e" />
    <path fill-rule="evenodd" clip-rule="evenodd"
        d="M250.374 91.7284C265.685 91.7284 278.096 79.8711 278.096 65.2444C278.096 50.6177 265.685 38.7603 250.374 38.7603C235.064 38.7603 222.653 50.6177 222.653 65.2444C222.653 79.8711 235.064 91.7284 250.374 91.7284ZM250.198 76.5938C256.281 76.5938 261.212 71.6348 261.212 65.5175C261.212 59.4003 256.281 54.4413 250.198 54.4413C244.115 54.4413 239.183 59.4003 239.183 65.5175C239.183 71.6348 244.115 76.5938 250.198 76.5938Z"
        fill="#2d2d2e" />
    <path
        d="M255.156 25.792C255.156 35.0145 262.632 42.4908 271.855 42.4908C281.077 42.4908 288.553 35.0145 288.553 25.792H255.156Z"
        fill="#2d2d2e" />
</svg>
